X:243
T:When Daylight Shines 
T:Carnival of Venice
M:6/8
L:1/8
K:G
d|:gfe dcB|d2c A2B|cBc e2d|B3-B2d|
|gfe dcB|d2c A2B|cBc e2F|G3-G2:|
|:G2A B2c|d3B2d|e2d c2d|B3D3|
|G2A B2c|d3g3|fed cBA|1 G3G2D:|2 G3G2d|
|:dcB BAG|F3A2B|dd2 cc2 |B3B2d|
|dcB BAG|F2A e2e|d2B dcA|G3-G2:|
